X: 6
T: The Old Maids Of Galway
R: reel
M: 4/4
L: 1/8
K: Bdor
|: A | BFF/F/F BFAF | EFDE FBBA | B4 BFAF | EFDE FBdc |BFF/F/F BFAF | EFDE FBBA | B3c dcBA | E/E/EFA B3 :||: c | d2cd B3c | dBcA Bee2 | d2cd B2AF | E2DE FBBc |d2cd B3c | dBcA Bee2 | efed B2AF | E2DE FBB :|


Tune 976	Setting 978

